X: 129021
T: COME LET US DANCE AND SING
%R: reel
B: James Kerr "Merry Melodies" v.1 p.29 s.0 #21
Z: 2016 John Chambers <jc:trillian.mit.edu>
M: 2/4
L: 1/16
K: D
uA2 !segno!|\
d4 (fe)de | f2d2 dedc |\
B2e2 efed | c2A2 A2(Bc) |\
d4 (fe)de | f2d2 dedc |\
B2e2d2c2 | d6 H||
(AG) |\
F2A2 ABAG | F2A2 ABAG |\
F2A2 d2f2 | (ed)cB A2AG |\
F2A2 ABAG | F2A2 A2(Bc) |\
d3e gfed | a3b agf"_D.C."e |]

%%sep 1 1 500
%%sep 1 1 500

